public/sheesh/icons7.svg

<svg width="42" height="42" viewBox="0 0 42 42" fill="none" xmlns="http://www.w3.org/2000/svg">
<rect width="42" height="42" rx="8" fill="#1D202F"/>
<path d="M30.139 18.8984H21.679V22.5684L23.249 20.9984C23.539 20.7084 24.019 20.7084 24.309 20.9984C24.599 21.2884 24.599 21.7684 24.309 22.0584L21.459 24.8984C21.169 25.1884 20.689 25.1884 20.399 24.8984L17.549 22.0584C17.399 21.9084 17.329 21.7184 17.329 21.5284C17.329 21.3384 17.409 21.1484 17.559 20.9984C17.849 20.7084 18.329 20.7084 18.619 20.9984L20.179 22.5584V18.8984H11.859C11.379 18.8984 10.999 19.2784 10.999 19.7584C10.999 25.6484 15.109 29.7584 20.999 29.7584C26.889 29.7584 30.999 25.6484 30.999 19.7584C30.999 19.2784 30.619 18.8984 30.139 18.8984Z" fill="#434665"/>
<path d="M21.6797 12.9883C21.6797 12.5783 21.3397 12.2383 20.9297 12.2383C20.5197 12.2383 20.1797 12.5783 20.1797 12.9883V18.8883H21.6797V12.9883Z" fill="#434665"/>
</svg>

<svg fill="none" height="42" viewBox="0 0 42 42" width="42" xmlns="http://www.w3.org/2000/svg"><rect fill="#1d202f" height="42" rx="8" width="42"/><g fill="#434665"><path d="m30.139 18.8984h-8.46v3.67l1.57-1.57c.29-.29.77-.29 1.06 0s.29.77 0 1.06l-2.85 2.84c-.29.29-.77.29-1.06 0l-2.85-2.84c-.15-.15-.22-.34-.22-.53s.08-.38.23-.53c.29-.29.77-.29 1.06 0l1.56 1.56v-3.66h-8.32c-.48 0-.86.38-.86.86 0 5.89 4.11 10 10 10s10-4.11 10-10c0-.48-.38-.86-.86-.86z"/><path d="m21.6797 12.9883c0-.41-.34-.75-.75-.75s-.75.34-.75.75v5.9h1.5z"/></g></svg>
